X:82
T:Dublin
Z: id:dc-reel-75
M:C
L:1/8
K:D Major
dFF2 dfec|dFF2 AFEF|dFF2 dfed|[1 cABG AFEA:|[2 cABc ABcd|]!
K:A Major
e2cA EAcf|e2cA BFF2|e2cA EAcA|BdcA BFF2|!
e2cA ecfc|e2cA BFF2|e2cA EAcA|BdcA BAFA|]!
K:D Major
d3c dAFA|dcdB AFEA|d3c dfed|cABc AFEA|!
d3c dAFA|dcdB AFEA|dcdf e2ae|fdBc dfec|]!

